!!!COM: Bach, Johann Sebastian
!!!OPR: Joh. Seb. Bachs vierstimmige Choralgesänge
!!!XEN: Four-part Chorales
!!!OTL: Chorale 62. Gib dich zufrieden und sei stille
!!!SCT: BWV 315
!!!SCA: Thematisch-systematisches Verzeichnis der musikalischen Werke Johann Sebastian Bach: Bach-Werke-Verzeichnis (Schmieder)
!!!YOR: Bach Gesellschaft Edition xxxix
!!!ENC: Steven Rasmussen
!!!CDT: 1685/3//-1750/7/28/
!!!OCY: Deutschland
!!!YEC: Copyright (c) 1994, 2000 Center for Computer Assisted Research in the Humanities
!!!YEM: Rights to all derivative editions reserved
!!!YEN: United States of America
**kern	**silbe	**kern	**kern	**kern	**silbe
*I:[BASSO]	*I:[BASSO]	*I:[TENORE]	*I:[ALTO]	*I:[SOPRANO]	*I:[SOPRANO]
*>[A,A,B]	*	*>[A,A,B]	*>[A,A,B]	*>[A,A,B]	*
*>A	*	*>A	*>A	*>A	*
*clefF4	*	*clefGv2	*clefG2	*clefG2	*
*k[f#]	*	*k[f#]	*k[f#]	*k[f#]	*
*e:	*	*e:	*e:	*e:	*
*M4/4	*	*M4/4	*M4/4	*M4/4	*
4E	.	4G	4e	4b	Gibin
=1	=1	=1	=1	=1	=1
8EL	.	4B	4e	4g	dichihm
8D#J	.	.	.	.	.
8EL	.	8cL	8f#L	8aL	zu-ruht
8D#J	.	8F#J	16gL	16bL	.
.	.	.	16aJJ	16ccJJ	.
8EL	.	8GL	8gL	4.b	-frie-al-
8F#J	.	8AJ	8d#J	.	.
8GL	.	8BL	8eL	.	.
8AJ	.	8cJ	8f#J	8a	-den-ler
=2	=2	=2	=2	=2	=2
4B	.	4B	8f#L	4g	undFreu-
.	.	.	8eJ	.	.
4BB	.	4B	8eL	8f#L	sei-den
.	.	.	8d#J	16gL	.
.	.	.	.	16aJJ	.
2E	.	8BL	(4.e	(4.g	stil-FÃ¼l-
.	.	8GJ	.	.	.
.	.	4A	.	.	.
.	.	.	8d#)	8f#)	.
=3	=3	=3	=3	=3	=3
2E;	.	2G;	2e;	2e;	-le-le,
4.E	.	8GL	4.g	4cc	inohn'
.	.	8AJ	.	.	.
.	.	4B	.	4b	demihn
8D	.	.	8f#	.	.
=4	=4	=4	=4	=4	=4
(8C	.	8BL	8eL	4ee	Got-mÃ¼hst
4c)	.	8AJ	8f#J	.	.
.	.	8AL	8f#L	4dd	-tedu
8B	.	8BJ	8gJ	.	.
4A	.	4c	4f#	8f#L	dei-dich
.	.	.	.	8ccJ	.
4G	.	4d	4g	8bL	-nesver-
.	.	.	.	8aJ	.
=5	=5	=5	=5	=5	=5
4C	.	4e	4g	2a	Le--ge-
4D	.	8dL	4f#	.	.
.	.	8cJ	.	.	.
4GG;	.	4B;	4d;	4g;	-bens,-bens.
=:|!	=:|!	=:|!	=:|!	=:|!	=:|!
*>B	*	*>B	*>B	*>B	*
4G	.	4d	4g	4b	Er
=6	=6	=6	=6	=6	=6
8F#L	.	4d	8aL	4a	ist
8DJ	.	.	8f#J	.	.
4G	.	8dL	8gL	8bL	dein
.	.	8c#J	8eJ	8gJ	.
8DL	.	4d	4f#	4a	Quell
8EJ	.	.	.	.	.
8DL	.	8G#L	4e	8bL	und
8CJ	.	8AJ	.	8ccJ	.
=7	=7	=7	=7	=7	=7
4BB	.	8AL	4d	4dd	dei-
.	.	8BJ	.	.	.
4E	.	4G#	4e	8ccL	-ne
.	.	.	.	8bJ	.
4A	.	8AL	8eL	8ccL	Son-
.	.	8BJ	8dJ	8bJ	.
4AA;	.	4c;	4e;	4a;	-ne,
=8	=8	=8	=8	=8	=8
4r	.	4r	4r	4r	.
4A	.	4c	4e	4cc	scheint
8BL	.	4.B	8d#L	4f#	tÃ¤g-
8cJ	.	.	8eJ	.	.
8BL	.	.	4f#	8eeL	-lich
8AJ	.	8c	.	8dd#J	.
=9	=9	=9	=9	=9	=9
8GL	.	8BL	8eL	8eeL	hell
8F#J	.	8AJ	8f#J	8ddJ	.
8EL	.	8GL	8gL	8ccL	zu
8DJ	.	8G#J	8fnJ	8bJ	.
8CL	.	8AL	4e	8aL	dei-
8BBJ	.	8BJ	.	8ggJ	.
4AA	.	4c	(8aL	8ff#L	-ner
.	.	.	16bL	8eeJ	.
.	.	.	16ccJJ)	.	.
=10	=10	=10	=10	=10	=10
4BB	.	4B	8f#L	8dd#L	Won-
.	.	.	8eJ	8cc#J	.
4BB;	.	4F#;	4d#;	4b;	-ne,
4r	.	4r	4r	4r	.
4G#	.	4B	4e	4ee	gib
=11	=11	=11	=11	=11	=11
!	!	!	!	! (8ddP/	!
8A	dich	8AL	4.e	4ccp)	dich
8AA	zu-	8BJ	.	.	.
[4A	-frie-	4c	.	8bL	zu-
.	.	.	8f#	8aJ	.
8AL]	.	8F#L	8d#L	8bL	-frie-
8F#J	.	8AJ	8f#J	8d#J	.
8G	-den,	8B	8e	8e	-den,
8C	.	8A	8e	8a	zu-
=12	=12	=12	=12	=12	=12
8BBL	.	4B	4e	4g	-frie-
8AAJ	.	.	.	.	.
4BB	.	8AL	4d#	8f#L	.
.	.	8GJ	.	8eJ	.
4E;	.	4G;	4B;	4e;	-den.
==|!	==|!	==|!	==|!	==|!	==|!
*-	*-	*-	*-	*-	*-
!!!RWG: Appoggiaturas of spine '[SOPRANO]' need manual editing in measures: 11
!!!RWG: Key is interpreted using the Humdrum key tool.
!!!URL-pdf: https://s9.imslp.org/files/imglnks/usimg/6/6b/IMSLP24489-PMLP09471-CCARH_Bach_Chorales.pdf#page=43 Musedata edition
!!!URL-pdf: https://s9.imslp.org/files/imglnks/usimg/7/7a/IMSLP04155-Bach_-_BGA_253-438.pdf#page=33 	Bach-Gesellschaft Ausgabe, Band 39 (pp.175-276) Leipzig: Breitkopf und Härtel, 1892. Plate B.W. XXXIX.
!!!END: 1994/06/06
!!!EMD: Converted from MuseData to Humdrum Dec 19, 2000, by Andreas Kornstaedt using muse2kern.
!!!EED: Craig Stuart Sapp
!!!EEV: 2024/03/31
!!!filter-keyboard: satb2gs
!!!title: @{OTL} (@{SCT})
